X: 1
T: Richard Dwyer's
R: reel
M: 4/4
L: 1/8
K: Ador
|: "Am"~A2EA cdeg|"Em"dABG AEGF|"Am"EAcA "G"(3Bcd gf|"F"ea2g "D"a2ag|
"Am"eaed cA~A2|"G"Bgdc "Em"BdcB|"Am"AEcE dEcd|"Em"ecBG "Am"EAA2:|
|: "Am"~a2ea c'aea|"G"~g2dg bagb|"F"aged cded|"Em"cABG "Am"EAA2|
"Am"~a2ea eaea|"G"~g2ge dBGB|"D"A2(3Bcd eaaf|"Em"gedg "Am"eA A2:|

composer: Richard Dwyer
